X: 801
T: Wap at the Widow
%R: jig
B: "Caledonian Country Dances" printed by John Walsh for John Johnson, London
S: 3: CCD3  http://javanese.imslp.info/files/imglnks/usimg/6/61/IMSLP173105-PMLP149069-caledoniancountr00ingl.pdf p.98
Z: 2013 John Chambers <jc:trillian.mit.edu>
M: 6/8
L: 1/8
K: D
V: 1
D |\
F>EF (D/E/)FD | EB,F TE2D | F>EF (DF)D | EFA d2e/d/ |\
c>BA B>AF | dAF TE2D | (FE)D DFD | TF3 A2 :|
|: A |\
d>ef efd | eBf Te2d | d>ef (ef)d | c>BA d2e |\
Tc>BA F/G/AB | AFd TE2D | dcd AdD | TF3 A2 :|
V: 2 clef=bass middle=d
z |\
d3 d2f | a2d a2d | d3 d3 | c3 B3 |\
A3 G3 | F2D A2D | D3 d3 | dAF D2 :|
|: z |\
d2d' a2b | c'2d' a2d' | d3 g3 | a2g f2g |\
a3 d2g | f2d a2d | d3 D3 | dAF D2 :|

%%sep 1 1 500
%%sep 1 1 500
